packages/components/Atoms/Icon/assets/img/rpl_icon_table.svg

<svg width="14" height="13" viewBox="0 0 14 13" overflow="visible" xmlns="http://www.w3.org/2000/svg">
  <path
    d="M0 1.37817C0 0.995364 0.127605 0.669825 0.382812 0.401855C0.63802 0.133885 0.947918 0 1.3125 0H12.6875C13.0521 0 13.3619 0.133885 13.6172 0.401855C13.8724 0.669825 14 0.995364 14 1.37817V11.4844C14 11.8672 13.8724 12.1925 13.6172 12.4604C13.3619 12.7284 13.0521 12.8625 12.6875 12.8625H1.3125C0.947918 12.8625 0.63802 12.7284 0.382812 12.4604C0.127605 12.1925 0 11.8672 0 11.4844V1.37817ZM12.9062 7.80933V5.05322H5.38672V7.80933H12.9062ZM12.9062 8.95776H5.38672V11.7141H12.5781C12.6692 11.7141 12.7467 11.6805 12.8105 11.6135C12.8743 11.5465 12.9062 11.4651 12.9062 11.3694V8.95776ZM1.09375 5.05322V7.80933H4.29297V5.05322H1.09375ZM5.38672 3.90479H12.9062V1.49292C12.9062 1.39721 12.8743 1.31601 12.8105 1.24902C12.7467 1.18203 12.6692 1.14844 12.5781 1.14844H5.38672V3.90479ZM4.29297 1.14844H1.42188C1.33073 1.14844 1.25326 1.18203 1.18945 1.24902C1.12565 1.31601 1.09375 1.39721 1.09375 1.49292V3.90479H4.29297V1.14844ZM1.09375 8.95776V11.3694C1.09375 11.4651 1.12565 11.5465 1.18945 11.6135C1.25326 11.6805 1.33073 11.7141 1.42188 11.7141H4.29297V8.95776H1.09375Z"
    fill="inherit" />
</svg>

<svg width="14" height="13" overflow="visible" xmlns="http://www.w3.org/2000/svg"><path d="M0 1.378C0 .995.128.67.383.402S.948 0 1.313 0h11.374c.365 0 .675.134.93.402s.383.593.383.976v10.106c0 .383-.128.709-.383.976a1.236 1.236 0 01-.93.402H1.313c-.365 0-.675-.134-.93-.402A1.363 1.363 0 010 11.484V1.378zM12.906 7.81V5.053h-7.52V7.81h7.52zm0 1.149h-7.52v2.756h7.192a.31.31 0 00.232-.1.341.341 0 00.096-.245V8.958zM1.094 5.053V7.81h3.199V5.053h-3.2zm4.293-1.148h7.52V1.493a.34.34 0 00-.097-.244.31.31 0 00-.232-.1H5.387v2.756zM4.293 1.148H1.422a.31.31 0 00-.233.101.34.34 0 00-.095.244v2.412h3.199V1.148zm-3.2 7.81v2.411c0 .096.033.178.096.245a.31.31 0 00.233.1h2.871V8.958h-3.2z" fill="inherit"/></svg>
